packages/kaspersky-hexa-ui-icons/src/iconsSVGs/24/Yandex2.svg

<svg width="24" height="24" viewBox="0 0 24 24" fill="none" xmlns="http://www.w3.org/2000/svg">
<path fill-rule="evenodd" clip-rule="evenodd" d="M12 22C17.5228 22 22 17.5228 22 12C22 6.47715 17.5228 2 12 2C6.47715 2 2 6.47715 2 12C2 17.5228 6.47715 22 12 22ZM13.2447 16.4411C13.2447 14.839 13.0418 14.3751 12.4328 13.0412L9.23593 6.06025H6.96695L11.07 14.984V18.5651H13.2447V16.4411ZM12.4546 12.1061L15.115 6.06025H17.3333L14.6656 12.1061H12.4546Z" fill="black"/>
</svg>

<svg xmlns="http://www.w3.org/2000/svg" width="24" height="24" fill="none" viewBox="0 0 24 24"><path fill="#000" fill-rule="evenodd" d="M12 22c5.5228 0 10-4.4772 10-10S17.5228 2 12 2 2 6.4772 2 12s4.4772 10 10 10m1.2447-5.5589c0-1.6021-.2029-2.066-.8119-3.3999l-3.1969-6.981H6.967l4.103 8.9238v3.5811h2.1747zm-.7901-4.335 2.6604-6.0458h2.2183l-2.6677 6.0458z" clip-rule="evenodd"/></svg>
